themes/rowanmanning/static/icons/response-inverted.svg

<svg width="25" height="25" xmlns="http://www.w3.org/2000/svg"><path d="M18.52 6.909H6.982c-.956 0-1.731.775-1.731 1.731v7.692c0 .956.775 1.731 1.731 1.731h9.954l2.33 2.331a.578.578 0 0 0 .985-.408V8.64c0-.956-.775-1.731-1.731-1.731zm-9.808 3.846h3.654a.577.577 0 0 1 0 1.154H8.712a.576.576 0 0 1 0-1.154zm8.077 3.462H8.712a.577.577 0 0 1 0-1.154h8.077a.577.577 0 1 1 0 1.154z" style="fill:#7f629c"/></svg>

<?xml version="1.0" encoding="utf-8"?>
<svg width="25" height="25" viewBox="0 0 25 25" xmlns="http://www.w3.org/2000/svg">
  <path d="M 18.52 6.909 L 6.982 6.909 C 6.026 6.909 5.251 7.684 5.251 8.64 L 5.251 16.332 C 5.251 17.288 6.026 18.063 6.982 18.063 L 16.936 18.063 L 19.266 20.394 C 19.374 20.502 19.521 20.563 19.674 20.563 C 19.75 20.564 19.825 20.549 19.895 20.518 C 20.11 20.429 20.251 20.219 20.251 19.986 L 20.251 8.64 C 20.251 7.684 19.476 6.909 18.52 6.909 Z M 8.712 10.755 L 12.366 10.755 C 12.685 10.755 12.943 11.014 12.943 11.332 C 12.943 11.651 12.685 11.909 12.366 11.909 L 8.712 11.909 C 8.394 11.909 8.136 11.651 8.136 11.332 C 8.136 11.014 8.394 10.755 8.712 10.755 Z M 16.789 14.217 L 8.712 14.217 C 8.394 14.217 8.136 13.958 8.136 13.64 C 8.136 13.321 8.394 13.063 8.712 13.063 L 16.789 13.063 C 17.108 13.063 17.366 13.321 17.366 13.64 C 17.366 13.958 17.108 14.217 16.789 14.217 Z" style="fill: rgb(127, 98, 156);"/>
</svg>
